icons/svg/old_road_shields/h_ter_shield4.svg

<svg width="39" height="17" viewBox="0 0 39 17" fill="none" xmlns="http://www.w3.org/2000/svg">
<g clip-path="url(#clip0)">
<path fill-rule="evenodd" clip-rule="evenodd" d="M8.015 0H30.272C34.672 0 38.299 3.605 38.299 8.041V8.928C38.299 13.364 34.672 16.969 30.272 16.969H8.015C3.586 16.969 -0.0130003 13.364 -0.0130003 8.928V8.041C-0.0140003 3.605 3.586 0 8.015 0Z" fill="#E7E768"/>
<path fill-rule="evenodd" clip-rule="evenodd" d="M8.32901 0.915009H29.957C33.9 0.915009 37.1 4.14901 37.1 8.06901V8.89901C37.1 12.821 33.901 16.053 29.957 16.053H8.32901C4.38601 16.053 1.15701 12.821 1.15701 8.89901V8.06901C1.15701 4.14901 4.38601 0.915009 8.32901 0.915009Z" fill="white"/>
<path fill-rule="evenodd" clip-rule="evenodd" d="M8.21501 2.604H30.071C33.13 2.604 35.614 5.122 35.614 8.184V8.812C35.614 11.874 33.13 14.392 30.071 14.392H8.21501C5.15701 14.392 2.64401 11.874 2.64401 8.812V8.185C2.64401 5.122 5.15701 2.604 8.21501 2.604Z" fill="#E7E768"/>
</g>
<defs>
<clipPath id="clip0">
<path d="M0 0H38.286V16.969H0V0Z" fill="white"/>
</clipPath>
</defs>
</svg>

<?xml version="1.0" encoding="utf-8"?>
<!-- Generator: Adobe Illustrator 16.0.4, SVG Export Plug-In . SVG Version: 6.00 Build 0)  -->
<!DOCTYPE svg PUBLIC "-//W3C//DTD SVG 1.1//EN" "http://www.w3.org/Graphics/SVG/1.1/DTD/svg11.dtd">
<svg version="1.1" id="Слой_1" xmlns="http://www.w3.org/2000/svg" xmlns:xlink="http://www.w3.org/1999/xlink" x="0px" y="0px"
	 width="38.286px" height="16.969px" viewBox="0 0 38.286 16.969" enable-background="new 0 0 38.286 16.969" xml:space="preserve">
<path fill-rule="evenodd" clip-rule="evenodd" fill="#E7E768" d="M8.015,0h22.257c4.4,0,8.027,3.605,8.027,8.041v0.887
	c0,4.436-3.627,8.041-8.027,8.041H8.015c-4.429,0-8.028-3.605-8.028-8.041V8.041C-0.014,3.605,3.586,0,8.015,0L8.015,0z"/>
<path fill-rule="evenodd" clip-rule="evenodd" fill="#FFFFFF" d="M8.329,0.915h21.628c3.943,0,7.143,3.234,7.143,7.154v0.83
	c0,3.922-3.199,7.154-7.143,7.154H8.329c-3.943,0-7.172-3.232-7.172-7.154v-0.83C1.157,4.149,4.386,0.915,8.329,0.915L8.329,0.915z"
	/>
<path fill-rule="evenodd" clip-rule="evenodd" fill="#E7E768" d="M8.215,2.604h21.856c3.059,0,5.543,2.518,5.543,5.58v0.628
	c0,3.062-2.484,5.58-5.543,5.58H8.215c-3.058,0-5.571-2.518-5.571-5.58V8.185C2.644,5.122,5.157,2.604,8.215,2.604L8.215,2.604z"/>
</svg>
